packages/icons/svg/Outline/camera.svg

<svg fill="none" height="24" viewBox="0 0 24 24" width="24" xmlns="http://www.w3.org/2000/svg"><path clip-rule="evenodd" d="m12 15.5001c-.827 0-1.5-.673-1.5-1.5s.673-1.5 1.5-1.5 1.5.673 1.5 1.5-.673 1.5-1.5 1.5zm0-5.0001c-1.93 0-3.49998 1.57-3.49998 3.5s1.56998 3.5 3.49998 3.5 3.5-1.57 3.5-3.5-1.57-3.5-3.5-3.5zm8 7.5c0 .551-.448 1-1 1h-13.99998c-.552 0-1-.449-1-1v-8c0-.551.448-1 1-1h13.99998c.552 0 1 .449 1 1zm-10-12.49993c0-.276.225-.5.5-.5h3c.275 0 .5.224.5.5v1.49999h-4zm9 1.49993h-3v-1.5c0-1.378-1.121-2.5-2.5-2.5h-3c-1.379 0-2.5 1.122-2.5 2.5v1.5h-3c-1.654 0-3 1.346-3 3v8c0 1.654 1.346 3 3 3h14c1.654 0 3-1.346 3-3v-8c0-1.654-1.346-3-3-3z" fill="#6b7280" fill-rule="evenodd"/></svg>

<svg width="24" height="24" viewBox="0 0 24 24" fill="none" xmlns="http://www.w3.org/2000/svg">
<g id="Icon/Outline/camera">
<path id="Mask" fill-rule="evenodd" clip-rule="evenodd" d="M12 15.5C11.173 15.5 10.5 14.827 10.5 14C10.5 13.173 11.173 12.5 12 12.5C12.827 12.5 13.5 13.173 13.5 14C13.5 14.827 12.827 15.5 12 15.5ZM12 10.5C10.07 10.5 8.5 12.07 8.5 14C8.5 15.93 10.07 17.5 12 17.5C13.93 17.5 15.5 15.93 15.5 14C15.5 12.07 13.93 10.5 12 10.5ZM20 18C20 18.551 19.552 19 19 19H5C4.448 19 4 18.551 4 18V10C4 9.449 4.448 9 5 9H19C19.552 9 20 9.449 20 10V18ZM10 5.5C10 5.224 10.225 5 10.5 5H13.5C13.775 5 14 5.224 14 5.5V7H10V5.5ZM19 7H16V5.5C16 4.122 14.879 3 13.5 3H10.5C9.121 3 8 4.122 8 5.5V7H5C3.346 7 2 8.346 2 10V18C2 19.654 3.346 21 5 21H19C20.654 21 22 19.654 22 18V10C22 8.346 20.654 7 19 7Z" fill="#000000"/>
</g>
</svg>
